X:1
T:Moment Musicaux No.3 in F Minor
T:Franz Schubert
%%score 1 2
L:1/8
Q:1/4=120
M:none
K:Ab
V:1 treble nm="Violin" snm="Vln."
V:2 treble nm="Violin" snm="Vln."
V:1
"^Allegretto" z8 |!f! uc4 c4 | z8 | vf4 f4 | f2 (f_g) f2 f2 | f2 b2 vf4 | (cB)(AB) (cd)(c=e) | %7
 f4 f4 | z8 | z8 | z8 | z8 | ua4 a4 | (gf)(=ef) f4 | ([df]e)e z z2 ue z | e4 e4 | [c=e]4 [ce]4 | %17
 a2 (ag) f2 (ed) | c4 [c=e]4 | a2 (ag) f2 (ed) | vc4 c4 | (cd)(ed) vd2 (cB) | A2 A2 (AB)(cB) | %23
 A4 A4 | A2 (AB) A2 G2 | c4 c4 | z8 | f4 f4 | f2 (f_g) f2 f2 | f2 b2 vf4 | (cB)(AB) (cd)(c=e) | %31
 f4 f4 | g2 (ga) g2 ug2 | b2 a2 z2 (gf) | c2 (cd) c2 u[c=e]2 | f4 f4 | g2 (ga) vg2 g2 | %37
 b2 a2 z2 (gf) | c2 (c=d) c2 vd2 | c2 (c=d) c2 vd2 | c2 (c=d) c2 v=e2 | f4 f4 | c2 (c=d) c2 v=A2 | %43
 B4 B4 | B2 (Bc) B2 v=E2 | F4 F4 | c2 (c=d) c2 =A2 | B4 B4 | B2 (Bc) B2 v=E2 | F4 F4 | F4 F4 | %51
 F8 |] %52
V:2
!f! vA2 AB A2 G2 | A4 A4 | A2 AB A2 [Ac]2 | [Ac]4 [Ac]4 | A2 A z =A2 A2 | B2 z2 vA4 | %6
 (AG)(FG) A z [GB] z | [Ac]4 [Ac]4 | c4 c4 | (cd)(ed) d3 c | B2 B2 (cB)(AB) | B4 c4 | %12
 u[ce]4 [ce]4 | (ed)(cd) d4 | G z ([Gd]A) B2 (u[Ad]G) | [Ac]4 [Ac]4 | [GB]4 [GB]4 | %17
 [Ac]2 [Ac] z z2 z2 | [GB]4 [GB]4 | [Ac]2 z2 z2 z2 | vA4 _G4 | F z z2 vF2 (ED) | C2 C2 (CD)(ED) | %23
 C4 C4 | z8 | A4 A4 | A2 (AB) A2 [Gc]2 | [Ac]4 [Ac]4 | A2 A z =A2 A2 | B2 z2 vA4 | %30
 (AG)(FG) A z [GB] z | [Ac]4 [Ac]4 | =e2 e z z2 ue2 | f2 z2 z2 z2 | A2 A z z2 u[GB]2 | %35
 [Ac]4 [Ac]4 | =e2 z2 ve2 e2 | f2 z2 z2 z2 | =A2 A z z2 vB2 | =A2 A z z2 vB2 | =A2 A z z2 vB2 | %41
 =A4 A4 | =A2 A z z2 vF2 | =E4 E4 | =E2 E z z2 vB,2 | =A,4 A,4 | =A2 z2 z2 E2 | =E4 E4 | %48
 =E2 E z z2 vB,2 | =A,4 A,4 | =A,4 A,4 | =A,8 |] %52

